X:1
T:&quot;The Blockers&quot;
C:
L:1/8
Q:380
K:Gmix
M:4/4
 z6 A2 |: Bc dc BG (3GAG | =FD CD FG Ac | dg (3gfg fg ag | fd c^A =A=F (3FEF | Bc dc BG (3GAG | \
 =FD CD FG Ac | dg (3gfg fg ag |1 fd cA G2 A2 :|2 fd cA GA Bd |: g2 dg Bg dB | cB cd cA FA | \
 DG (3GFG FG Ac | Bc de fd ef | g2 dg Bg dB | cB cd cA F2 | DG (3GFG FG Ac |1 BG AF GA Bd :|2 BG AF G2 A2 | \
 BG AF G4 | \
